packages/symbols/svgs/duotone/arrow-trend-down-duotone.svg

<svg width="24" height="24" viewBox="0 0 24 24" fill="none" xmlns="http://www.w3.org/2000/svg">
<path opacity="0.5" fill-rule="evenodd" clip-rule="evenodd" d="M13.0294 6.00043C13.3047 6.00852 13.5644 6.12979 13.7474 6.33564L21.7474 15.3356C22.1143 15.7484 22.0771 16.3805 21.6644 16.7474C21.2516 17.1143 20.6195 17.0771 20.2526 16.6644L12.9572 8.45703L7.70711 13.7071C7.31658 14.0976 6.68342 14.0976 6.29289 13.7071L1.29289 8.70711C0.902369 8.31658 0.902369 7.68342 1.29289 7.29289C1.68342 6.90237 2.31658 6.90237 2.70711 7.29289L7 11.5858L12.2929 6.29289C12.4876 6.09815 12.7541 5.99234 13.0294 6.00043Z" fill="black"/>
<path fill-rule="evenodd" clip-rule="evenodd" d="M22 9C22.5523 9 23 9.44772 23 10V17C23 17.5523 22.5523 18 22 18H15C14.4477 18 14 17.5523 14 17C14 16.4477 14.4477 16 15 16H21V10C21 9.44772 21.4477 9 22 9Z" fill="black"/>
</svg>

<svg width="24" height="24" viewBox="0 0 24 24" xmlns="http://www.w3.org/2000/svg"><path opacity=".5" fill-rule="evenodd" clip-rule="evenodd" d="M13.03 6a1 1 0 0 1 .717.336l8 9a1 1 0 0 1-1.494 1.328l-7.296-8.207-5.25 5.25a1 1 0 0 1-1.414 0l-5-5a1 1 0 0 1 1.414-1.414L7 11.586l5.293-5.293A1 1 0 0 1 13.029 6Z"/><path fill-rule="evenodd" clip-rule="evenodd" d="M22 9a1 1 0 0 1 1 1v7a1 1 0 0 1-1 1h-7a1 1 0 1 1 0-2h6v-6a1 1 0 0 1 1-1Z"/></svg>
